X:1
T:Laura Susan
L:1/8
M:2/4
I:linebreak $
K:F
V:1 treble nm="Voice" snm="Voice"
V:1
 AF cA | c/d/c/B/ AA/B/ | cA f>B |"C7" AG G-G/A/ |$ BG dB | g/a/g/f/ ee/d/ | c3/2c de | | gf f2 ::$ %9
 aa fe/f/ |"C7" gg e>c | f>g ac' | g2 fg |$ aa fg/a/ | bb gb/b/ | af e/f/g/e/ || f2- f2 :| %17
